X:190
T:B190-  Hey, boys up go we
Q:1/4=120
L:1/4
M:4/4
K:C
C|CccB|(A/2G/2)F(E/2F/2)G|F3/2E/2DC|c3C|\
CccB|(A/2G/2)F(E/2F/2)G|F3/2E/2D3/2C/2|c3G|\
c3/2d/2 (e/2f/2)e|(d/2B/2)cA3/2G/2|c3/2A/2BG|G3d|\
g3/2f/2 (e/2d/2)c|f(e/2d/2)B(A/2G/2)|\
cEDB|c3|]
